X:2

T:Roast Beef

M:6/8

L:1/8

S:Robinson – Massachusetts Collection of Martial Musick (1818)

K:D

A|dcd Bcd|fdf ecA|dfd cAc|BGB A2:|

|:B/c/|BGB dcB|AG A/B/ A/z/ z2|def ecA|def AGF|GAB cBc|d z2 z2:|

                       

ROASTED WOMAN. English, Morris Dance Air. This song was collected from the Cotswold village of Headington, Oxon. It was sung by the character of the Fool in the latter part of the nineteenth century. EMI/Harvest 7243 8 29861 2 6, Ashley Hutchings et al - "Son of Morris On" (1976/1994).

                       

ROASTING CHESTNUTS. Scottish, Hornpipe. D Major. Standard tuning. AAB. A modern composition by Alan Lerwick (USA), 1983. Lerwick (Kilted Fiddler), 1985; pg. 52‑53.

                       

ROAXIE ANN. Old‑Time. The title appears in a list of traditional Ozark Mountain fiddle tunes compiled by musicologist/folklorist Vance Randolph, published in 1954. Perhaps Bill Monroe's "Roxanna Waltz" or "Ragtime Annie."

                       

ROB AN LUGI. AKA and see “Blair Drummond.” Scottish, Strathspey. A Mixolydian. Standard tuning. AABB (Kerr) AABB' (Athole). A tune by this name (“Rob on Lugy”) appears in MacKercher’s Collection (c. 1830). “Blair Drummond” is the name of the tune in pipe collections, and in fiddle collections when set in four parts, report Dunlay and Greenberg. Kerr (Merry Melodies), Vol. 2; No. 46, pg. 8. Stewart-Robertson (The Athole Collection), 1884; pg. 36.

